icons/Wallet 3.svg

<svg width="24" height="24" viewBox="0 0 24 24" fill="none" xmlns="http://www.w3.org/2000/svg">
<g id="Wallet 3">
<path id="Vector" d="M18 5.5H6C4.34315 5.5 3 6.84315 3 8.5V15.5C3 17.1569 4.34315 18.5 6 18.5H18C19.6569 18.5 21 17.1569 21 15.5V8.5C21 6.84315 19.6569 5.5 18 5.5Z" stroke="#00153F" stroke-width="1.5" stroke-linecap="round" stroke-linejoin="round"/>
<path id="Vector_2" d="M17.25 9.75H21V14.25H17.25C16.6533 14.25 16.081 14.0129 15.659 13.591C15.2371 13.169 15 12.5967 15 12C15 11.4033 15.2371 10.831 15.659 10.409C16.081 9.98705 16.6533 9.75 17.25 9.75Z" stroke="#00153F" stroke-width="1.5" stroke-linecap="round" stroke-linejoin="round"/>
<path id="Vector_3" d="M7 9H10" stroke="#00153F" stroke-width="1.5" stroke-linecap="round" stroke-linejoin="round"/>
</g>
</svg>

<svg xmlns="http://www.w3.org/2000/svg" fill="none" viewBox="0 0 24 24"><g stroke="currentColor" stroke-linecap="round" stroke-linejoin="round" stroke-width="1.5"><path d="M18 5.5H6a3 3 0 0 0-3 3v7a3 3 0 0 0 3 3h12a3 3 0 0 0 3-3v-7a3 3 0 0 0-3-3Z"/><path d="M17.25 9.75H21v4.5h-3.75a2.25 2.25 0 0 1 0-4.5ZM7 9h3"/></g></svg>
